X:2
T:Mrs. Crotty's
R:Hornpipe
L:1/8
M:C
K:C
ef|gG eg fA df|eG ce dA Bd|(3ccc Bc de fd|eG ce dd ef|
gG eg fA df|eG ce dA Bd|(3ccc Bc de fd|e2 c2 c2:|
ed|cA AG Ad cA|GF EF GA BG|c2 Bc de fd|eG ce d2 ed|
cA AG Ad cA|GF EF GA BG|c2 Bc de fd|e2 c2 c2:|
